trafik_levhalari/trafik_tanzim/62.svg

<svg viewBox="0 0 519.46 519.46" xmlns="http://www.w3.org/2000/svg"><defs><style>.cls-1{fill:#00408c;}.cls-1,.cls-4{fill-rule:evenodd;}.cls-2,.cls-4{fill:#fff;}.cls-3{fill:#ef2028;}</style></defs><g data-name="Layer 2"><g data-name="Layer 1"><path class="cls-1" d="M0,259.73C0,403.18,116.29,519.46,259.73,519.46h0c143.45,0,259.73-116.28,259.73-259.73h0C519.46,116.29,403.18,0,259.73,0S0,116.29,0,259.73H0"/><path class="cls-2" d="m125.24 129.41a64.71 64.71 0 0 0-63.41 60.59v0.11a1.08 1.08 0 0 0 1.17 1.03h37a1.08 1.08 0 0 0 1.08-0.91 25.61 25.61 0 0 1 50.92 4.4 1.31 1.31 0 0 0 0 0.34 28.63 28.63 0 0 1-16.67 28.08h-27.81v44h23.13a57.38 57.38 0 0 1 25.35 62.78 0.22 0.22 0 0 0 0 0.08 33.7 33.7 0 0 1-37.34 22.79 33.74 33.74 0 0 1-28.46-33.39c0-0.14-0.12-0.23-0.14-0.35a1.63 1.63 0 0 0-0.09-0.19 1.12 1.12 0 0 0-0.19-0.29 1.1 1.1 0 0 0-0.77-0.3h-36.66a1.09 1.09 0 0 0-1.08 0.95 1.45 1.45 0 0 0-0.17 0.18 72.9 72.9 0 0 0 145.8 0.07v-0.05a96.54 96.54 0 0 0-28.34-71.85 67.69 67.69 0 0 0 22.56-53.18c0-0.06 0.06-0.09 0.06-0.15a64.75 64.75 0 0 0-62.66-64.67h-3.25z"/><path class="cls-2" d="M466.59,249c-1-36.64-4.93-61.08-12.66-78.35A70.52,70.52,0,0,0,438.3,148c-10.52-10-24.18-15.59-41.31-17-3.22-.27-6.33-.39-9.27-.37h0a72.7,72.7,0,0,0-8.26.49A54.27,54.27,0,0,0,347,146.41q-27.41,26.88-29.68,99.15c-.27,8.68-.25,18.67,0,27.15,1.09,31.16,5.85,56.49,14.23,75.66a66.91,66.91,0,0,0,8.33,14.55,74,74,0,0,0,32,23.89,60.34,60.34,0,0,0,19.52,4.24c1.21.05,3.65,0,5.29-.09a68.67,68.67,0,0,0,31.66-9.74,65.66,65.66,0,0,0,22.46-22.67,74.89,74.89,0,0,0,6.8-15.09c5.15-15.28,8.13-35.9,8.95-62,.17-5.46.21-8.73.21-15.67S466.75,255.24,466.59,249Zm-38.11,34.81c-.62,16.9-2.55,29.4-5.93,38.43-.46,1.23-.92,2.3-2.71,6.35-3.11,7-5.11,10.8-7.22,13.61-4.17,5.56-9.18,8-17.38,8.37-.73,0-3.44.05-4.15,0a36.66,36.66,0,0,1-7.64-1c-5.66-1.39-9.34-4.32-12.17-9.68a59.69,59.69,0,0,1-3.48-8.45c-.55-1.58-2.87-8.57-3.26-9.81-3.71-11.88-5.94-25.87-6.85-43.13-.59-11-.65-24.15-.16-35.56,1-22.69,4-40.55,9-52.82a42.79,42.79,0,0,1,6-10.69c3.83-4.57,8.91-7,16.16-7.61,1.53-.14,3.19-.21,4.82-.22h0c1.63,0,3.22,0,4.6.17,6.42.58,11.13,2.53,14.68,6.08a26.38,26.38,0,0,1,5.55,8.77c5.48,12.77,8.67,30.64,9.85,55.28.39,8.26.55,15.92.55,26.81C428.71,276.48,428.68,278.82,428.48,283.82Z"/><rect class="cls-3" transform="translate(40.23 -34.79) rotate(8.3)" x="225.68" y="15.1" width="68.44" height="489.7"/><path class="cls-4" d="m259.75 8.73c138.56 0 251 112.42 251 251s-112.42 251-251 251-251-112.42-251-251 112.44-251 251-251zm0 8.64c-133.89 0-242.34 108.45-242.34 242.34s108.45 242.34 242.34 242.34 242.34-108.45 242.34-242.34-108.44-242.34-242.34-242.34z"/></g></g></svg>

<svg xmlns="http://www.w3.org/2000/svg" viewBox="0 0 519.46 519.46"><defs><style>.cls-1{fill:#00408c;}.cls-1,.cls-4{fill-rule:evenodd;}.cls-2,.cls-4{fill:#fff;}.cls-3{fill:#ef2028;}</style></defs><title>Asset 2</title><g id="Layer_2" data-name="Layer 2"><g id="Layer_1-2" data-name="Layer 1"><g id="layer1"><path id="path13683" class="cls-1" d="M0,259.73C0,403.18,116.29,519.46,259.73,519.46h0c143.45,0,259.73-116.28,259.73-259.73h0C519.46,116.29,403.18,0,259.73,0S0,116.29,0,259.73H0"/><path class="cls-2" d="M125.24,129.41h0A64.71,64.71,0,0,0,61.83,190c0,.12,0,.08,0,.11A1.08,1.08,0,0,0,63,191.14h37a1.08,1.08,0,0,0,1.08-.91l0,0A25.61,25.61,0,0,1,152,194.63a1.31,1.31,0,0,0,0,.34,28.63,28.63,0,0,1-16.67,28.08H107.52v44h23.13A57.38,57.38,0,0,1,156,329.83a.22.22,0,0,0,0,.08,33.7,33.7,0,0,1-37.34,22.79h0a33.74,33.74,0,0,1-28.46-33.39c0-.14-.12-.23-.14-.35a1.63,1.63,0,0,0-.09-.19,1.12,1.12,0,0,0-.19-.29,1.1,1.1,0,0,0-.77-.3H52.35a1.09,1.09,0,0,0-1.08.95,1.45,1.45,0,0,0-.17.18,72.9,72.9,0,0,0,145.8.07v0h0v-.05a96.54,96.54,0,0,0-28.34-71.85,67.69,67.69,0,0,0,22.56-53.18c0-.06.06-.09.06-.15a64.75,64.75,0,0,0-62.66-64.67h0c-1.09,0-2.17,0-3.25,0Z"/><path class="cls-2" d="M466.59,249c-1-36.64-4.93-61.08-12.66-78.35A70.52,70.52,0,0,0,438.3,148c-10.52-10-24.18-15.59-41.31-17-3.22-.27-6.33-.39-9.27-.37h0a72.7,72.7,0,0,0-8.26.49A54.27,54.27,0,0,0,347,146.41q-27.41,26.88-29.68,99.15c-.27,8.68-.25,18.67,0,27.15,1.09,31.16,5.85,56.49,14.23,75.66a66.91,66.91,0,0,0,8.33,14.55,74,74,0,0,0,32,23.89,60.34,60.34,0,0,0,19.52,4.24c1.21.05,3.65,0,5.29-.09a68.67,68.67,0,0,0,31.66-9.74,65.66,65.66,0,0,0,22.46-22.67,74.89,74.89,0,0,0,6.8-15.09c5.15-15.28,8.13-35.9,8.95-62,.17-5.46.21-8.73.21-15.67S466.75,255.24,466.59,249Zm-38.11,34.81c-.62,16.9-2.55,29.4-5.93,38.43-.46,1.23-.92,2.3-2.71,6.35-3.11,7-5.11,10.8-7.22,13.61-4.17,5.56-9.18,8-17.38,8.37-.73,0-3.44.05-4.15,0a36.66,36.66,0,0,1-7.64-1c-5.66-1.39-9.34-4.32-12.17-9.68a59.69,59.69,0,0,1-3.48-8.45c-.55-1.58-2.87-8.57-3.26-9.81-3.71-11.88-5.94-25.87-6.85-43.13-.59-11-.65-24.15-.16-35.56,1-22.69,4-40.55,9-52.82a42.79,42.79,0,0,1,6-10.69c3.83-4.57,8.91-7,16.16-7.61,1.53-.14,3.19-.21,4.82-.22h0c1.63,0,3.22,0,4.6.17,6.42.58,11.13,2.53,14.68,6.08a26.38,26.38,0,0,1,5.55,8.77c5.48,12.77,8.67,30.64,9.85,55.28.39,8.26.55,15.92.55,26.81C428.71,276.48,428.68,278.82,428.48,283.82Z"/><rect class="cls-3" x="225.68" y="15.1" width="68.44" height="489.7" transform="translate(40.23 -34.79) rotate(8.3)"/><path id="path13685" class="cls-4" d="M259.75,8.73c138.56,0,251,112.42,251,251s-112.42,251-251,251-251-112.42-251-251S121.19,8.73,259.75,8.73Zm0,8.64c-133.89,0-242.34,108.45-242.34,242.34S125.86,502.05,259.75,502.05,502.09,393.6,502.09,259.71,393.65,17.37,259.75,17.37Z"/></g></g></g></svg>
